Numix-Circle/48x48/apps/telegram.svg

<?xml version="1.0" encoding="UTF-8" standalone="no"?>
<svg
   xmlns:dc="http://purl.org/dc/elements/1.1/"
   xmlns:cc="http://creativecommons.org/ns#"
   xmlns:rdf="http://www.w3.org/1999/02/22-rdf-syntax-ns#"
   xmlns:svg="http://www.w3.org/2000/svg"
   xmlns="http://www.w3.org/2000/svg"
   xmlns:xlink="http://www.w3.org/1999/xlink"
   xmlns:sodipodi="http://sodipodi.sourceforge.net/DTD/sodipodi-0.dtd"
   xmlns:inkscape="http://www.inkscape.org/namespaces/inkscape"
   width="48"
   viewBox="0 0 13.546667 13.546667"
   height="48"
   id="svg2"
   version="1.1"
   inkscape:version="0.91 r13725"
   sodipodi:docname="telegram.svg"
   inkscape:export-filename="/home/me4oslav/Downloads/gimp-new-circle.png"
   inkscape:export-xdpi="720"
   inkscape:export-ydpi="720">
  <metadata
     id="metadata331">
    <rdf:RDF>
      <cc:Work
         rdf:about="">
        <dc:format>image/svg+xml</dc:format>
        <dc:type
           rdf:resource="http://purl.org/dc/dcmitype/StillImage" />
        <dc:title />
      </cc:Work>
    </rdf:RDF>
  </metadata>
  <sodipodi:namedview
     pagecolor="#ffffff"
     bordercolor="#666666"
     borderopacity="1"
     objecttolerance="10"
     gridtolerance="10"
     guidetolerance="10"
     inkscape:pageopacity="0"
     inkscape:pageshadow="2"
     inkscape:window-width="1920"
     inkscape:window-height="1052"
     id="namedview329"
     showgrid="false"
     inkscape:zoom="18.180301"
     inkscape:cx="12.631557"
     inkscape:cy="22.868901"
     inkscape:window-x="0"
     inkscape:window-y="28"
     inkscape:window-maximized="1"
     inkscape:current-layer="layer3"
     showguides="true"
     inkscape:guide-bbox="true">
    <inkscape:grid
       type="xygrid"
       id="grid3308" />
  </sodipodi:namedview>
  <defs
     id="defs4">
    <linearGradient
       inkscape:collect="always"
       xlink:href="#linearGradient4069"
       id="linearGradient4153"
       x1="-27"
       y1="13"
       x2="-24"
       y2="13"
       gradientUnits="userSpaceOnUse" />
    <linearGradient
       id="linearGradient4069">
      <stop
         style="stop-color:#37aee2;stop-opacity:1;"
         offset="0"
         id="stop4071" />
      <stop
         style="stop-color:#51c3f4;stop-opacity:1;"
         offset="1"
         id="stop4073" />
    </linearGradient>
    <linearGradient
       id="4-7">
      <stop
         stop-color="#eff7fc"
         id="stop67" />
      <stop
         offset="1"
         stop-color="#ffffff"
         id="stop69" />
    </linearGradient>
    <linearGradient
       y2="160"
       x2="160"
       y1="120"
       x1="135"
       gradientTransform="matrix(0.05622958,0,0,0.05622958,0.07160145,-0.0527796)"
       gradientUnits="userSpaceOnUse"
       id="linearGradient3102"
       xlink:href="#4-7"
       inkscape:collect="always" />
  </defs>
  <g
     inkscape:groupmode="layer"
     id="layer1"
     inkscape:label="Shadow"
     sodipodi:insensitive="true">
    <path
       style="opacity:0.05;fill:#000000;fill-opacity:1;stroke:none"
       d="M 25,2 C 12.297451,2 2,12.297451 2,25 2,31.367153 4.6007106,37.116628 8.78125,41.28125 12.865755,44.99361 18.29568,47.25 24.25,47.25 c 12.702549,0 23,-10.297451 23,-23 0,-5.95432 -2.25639,-11.384245 -5.96875,-15.46875 C 37.116628,4.6007105 31.367153,2 25,2 z M 41.28125,8.78125 C 45.135604,12.894061 47.5,18.418655 47.5,24.5 c 0,12.702549 -10.297451,23 -23,23 C 18.418655,47.5 12.894061,45.135604 8.78125,41.28125 12.940939,45.4251 18.664604,48 25,48 37.702549,48 48,37.702549 48,25 48,18.664604 45.4251,12.940939 41.28125,8.78125 z"
       transform="scale(0.28222223,0.28222223)"
       id="path3978"
       inkscape:connector-curvature="0" />
    <path
       style="opacity:0.1;fill:#000000;fill-opacity:1;stroke:none"
       d="M 41.28125,8.78125 C 44.99361,12.865755 47.25,18.29568 47.25,24.25 c 0,12.702549 -10.297451,23 -23,23 -5.95432,0 -11.384245,-2.25639 -15.46875,-5.96875 C 12.894061,45.135604 18.418655,47.5 24.5,47.5 c 12.702549,0 23,-10.297451 23,-23 0,-6.081345 -2.364396,-11.605939 -6.21875,-15.71875 z"
       transform="scale(0.28222223,0.28222223)"
       id="path3976"
       inkscape:connector-curvature="0" />
    <path
       transform="matrix(4.3274074,0,0,3.2455556,117.19278,-35.348334)"
       d="m -24,13 a 1.5,2 0 1 1 -3,0 1.5,2 0 1 1 3,0 z"
       sodipodi:ry="2"
       sodipodi:rx="1.5"
       sodipodi:cy="13"
       sodipodi:cx="-25.5"
       id="path3952"
       style="opacity:0.2;fill:#000000;fill-opacity:1;stroke:none"
       sodipodi:type="arc" />
  </g>
  <g
     inkscape:groupmode="layer"
     id="layer2"
     inkscape:label="Base">
    <path
       sodipodi:type="arc"
       style="fill:url(#linearGradient4153);fill-opacity:1.0;stroke:none"
       id="path3942"
       sodipodi:cx="-25.5"
       sodipodi:cy="13"
       sodipodi:rx="1.5"
       sodipodi:ry="2"
       d="m -24,13 a 1.5,2 0 1 1 -3,0 1.5,2 0 1 1 3,0 z"
       transform="matrix(0,-4.3274075,3.2455556,0,-35.429918,-103.60974)" />
    <path
       style="opacity:0.1;fill:#000000;fill-opacity:1;stroke:none"
       d="M 40.03125 7.53125 C 43.74361 11.615755 46 17.04568 46 23 C 46 35.702549 35.702549 46 23 46 C 17.04568 46 11.615755 43.74361 7.53125 40.03125 C 11.709416 44.322508 17.537578 47 24 47 C 36.702549 47 47 36.702549 47 24 C 47 17.537578 44.322508 11.709416 40.03125 7.53125 z "
       transform="scale(0.28222223,0.28222223)"
       id="path4027" />
  </g>
  <g
     inkscape:groupmode="layer"
     id="layer3"
     inkscape:label="Symbol">
    <g
       id="g4218"
       style="fill:#000000;fill-opacity:1;opacity:0.1">
      <path
         id="path4220"
         d="m 5.5821004,9.7873968 c -0.2186006,0 -0.1814527,-0.08254 -0.2568453,-0.290678 L 4.6819505,7.3809617 8.6632908,4.8935174 9.1278995,5.0150305 8.7419171,6.0729093 z"
         inkscape:connector-curvature="0"
         style="fill:#000000;fill-opacity:1" />
      <path
         id="path4222"
         d="m 5.5821004,9.7873968 c 0.1686887,0 0.2434679,-0.07689 0.3373774,-0.168689 C 6.0644574,9.4769908 7.9437428,7.650673 7.9437428,7.650673 L 6.7926147,7.3720493 5.7242527,8.0468043 5.5821004,9.7311668 z"
         inkscape:connector-curvature="0"
         style="fill:#000000;fill-opacity:1" />
      <path
         id="path4224"
         d="m 5.6969419,8.0671532 2.7192722,2.0090178 c 0.3103035,0.171212 0.5342597,0.08257 0.6115675,-0.2880942 L 10.134669,4.5720625 C 10.247995,4.1177148 9.9614767,3.9116351 9.6646205,4.0464176 L 3.1648194,6.5533393 C 2.7211634,6.731289 2.7237485,6.9788071 3.0839509,7.089093 L 4.7518626,7.6096833 8.6133308,5.1735215 c 0.182289,-0.1105407 0.3495945,-0.051112 0.2122796,0.07076 z"
         inkscape:connector-curvature="0"
         style="fill:#000000;fill-opacity:1" />
    </g>
    <g
       transform="translate(-0.28222219,-0.28222245)"
       id="g82">
      <path
         style="fill:#c8daea"
         inkscape:connector-curvature="0"
         d="m 5.5821004,9.7873968 c -0.2186006,0 -0.1814527,-0.08254 -0.2568453,-0.290678 L 4.6819505,7.3809617 8.6632908,4.8935174 9.1278995,5.0150305 8.7419171,6.0729093 z"
         id="path84" />
      <path
         style="fill:#a7c2d1"
         inkscape:connector-curvature="0"
         d="m 5.5821004,9.7873968 c 0.1686887,0 0.2434679,-0.07689 0.3373774,-0.168689 C 6.0644574,9.4769908 7.9437428,7.650673 7.9437428,7.650673 L 6.7926147,7.3720493 5.7242527,8.0468043 5.5821004,9.7311668 z"
         id="path86" />
      <path
         style="fill:url(#linearGradient3102)"
         inkscape:connector-curvature="0"
         d="m 5.6969419,8.0671532 2.7192722,2.0090178 c 0.3103035,0.171212 0.5342597,0.08257 0.6115675,-0.2880942 L 10.134669,4.5720625 C 10.247995,4.1177148 9.9614767,3.9116351 9.6646205,4.0464176 L 3.1648194,6.5533393 C 2.7211634,6.731289 2.7237485,6.9788071 3.0839509,7.089093 L 4.7518626,7.6096833 8.6133308,5.1735215 c 0.182289,-0.1105407 0.3495945,-0.051112 0.2122796,0.07076 z"
         id="path88" />
    </g>
  </g>
</svg>

<svg xmlns="http://www.w3.org/2000/svg" width="48" viewBox="0 0 13.546667 13.546667" height="48"><defs><linearGradient id="linearGradient4153" x1="-27" x2="-24" gradientUnits="userSpaceOnUse"><stop stop-color="#37aee2" stop-opacity="1"/><stop offset="1" stop-color="#51c3f4" stop-opacity="1"/></linearGradient><linearGradient y2="160" x2="160" y1="120" x1="135" gradientTransform="matrix(0.05622958,0,0,0.05622958,0.07160145,-0.0527796)" gradientUnits="userSpaceOnUse" id="linearGradient3102"><stop stop-color="#eff7fc"/><stop offset="1" stop-color="#fff"/></linearGradient></defs><g><path d="m 25 2 c -12.703 0 -23 10.297 -23 23 0 6.367 2.601 12.12 6.781 16.281 4.085 3.712 9.514 5.969 15.469 5.969 c 12.703 0 23 -10.297 23 -23 0 -5.954 -2.256 -11.384 -5.969 -15.469 c -4.165 -4.181 -9.914 -6.781 -16.281 -6.781 z m 16.281 6.781 c 3.854 4.113 6.219 9.637 6.219 15.719 c 0 12.703 -10.297 23 -23 23 c -6.081 0 -11.606 -2.364 -15.719 -6.219 4.16 4.144 9.883 6.719 16.219 6.719 12.703 0 23 -10.297 23 -23 0 -6.335 -2.575 -12.06 -6.719 -16.219 z" transform="scale(0.28222223,0.28222223)" opacity="0.05" fill="#000" stroke="none" fill-opacity="1"/><path d="m 41.28 8.781 c 3.712 4.085 5.969 9.514 5.969 15.469 c 0 12.703 -10.297 23 -23 23 -5.954 0 -11.384 -2.256 -15.469 -5.969 c 4.113 3.854 9.637 6.219 15.719 6.219 c 12.703 0 23 -10.297 23 -23 0 -6.081 -2.364 -11.606 -6.219 -15.719 z" transform="scale(0.28222223,0.28222223)" opacity="0.1" fill="#000" stroke="none" fill-opacity="1"/><path transform="matrix(4.3274074,0,0,3.2455556,117.19278,-35.348334)" d="m -24 13 a 1.5 2 0 1 1 -3 0 1.5 2 0 1 1 3 0 z" opacity="0.2" fill="#000" stroke="none" fill-opacity="1"/></g><g><path d="m -24 13 a 1.5 2 0 1 1 -3 0 1.5 2 0 1 1 3 0 z" transform="matrix(0,-4.3274075,3.2455556,0,-35.429918,-103.60974)" fill="url(#linearGradient4153)" stroke="none" fill-opacity="1"/><path d="m 40.03 7.531 c 3.712 4.085 5.969 9.514 5.969 15.469 c 0 12.703 -10.297 23 -23 23 c -5.954 0 -11.384 -2.256 -15.469 -5.969 c 4.178 4.291 10.01 6.969 16.469 6.969 c 12.703 0 23 -10.297 23 -23 c 0 -6.462 -2.677 -12.291 -6.969 -16.469 z" transform="scale(0.28222223,0.28222223)" opacity="0.1" fill="#000" stroke="none" fill-opacity="1"/></g><g opacity="0.1" fill="#000" fill-opacity="1"><path d="m 35.01 14.215 c -0.237 -0.027 -0.497 0.016 -0.76 0.135 l -23.03 8.885 c -1.573 0.631 -1.563 1.505 -0.287 1.898 l 5.91 1.846 l 0.004 -0.002 l 2.025 6.67 c 0.269 0.737 0.136 1.031 0.912 1.031 c 0.599 0 0.86 -0.272 1.193 -0.598 c 0.205 -0.201 1.515 -1.474 2.865 -2.787 l 5.982 4.424 c 1.098 0.606 1.892 0.293 2.168 -1.021 l 3.924 -18.48 c 0.3 -1.206 -0.196 -1.92 -0.906 -2 z" transform="scale(0.28222223,0.28222223)" fill="#000"/></g><g transform="translate(4.797778,-0.28222245)"><g transform="translate(-5.0800672,0)"><path d="M 5.582,9.787 C 5.363,9.787 5.401,9.704 5.325,9.496 L 4.682,7.38 8.663,4.893 9.128,5.015 8.742,6.073 Z" fill="#c8daea"/><path d="M 5.582,9.787 C 5.751,9.787 5.825,9.71 5.919,9.618 6.064,9.476 7.943,7.65 7.943,7.65 L 6.792,7.371 5.724,8.046 5.582,9.73 Z" fill="#a7c2d1"/><path d="m 5.697,8.07 2.719,2.01 c 0.31,0.171 0.534,0.083 0.612,-0.288 L 10.135,4.576 C 10.248,4.122 9.962,3.916 9.665,4.05 l -6.5,2.507 C 2.721,6.735 2.724,6.982 3.084,7.093 L 4.752,7.614 8.613,5.178 C 8.795,5.067 8.963,5.127 8.825,5.249 Z" fill="url(#linearGradient3102)"/></g></g></svg>
